svgs/faststair.svg

<svg width="192" height="192" viewBox="0 0 192 192" fill="none" xmlns="http://www.w3.org/2000/svg">
<path d="M170 69H159C155.686 69 153 71.6863 153 75V105C153 108.314 150.314 111 147 111H117C113.686 111 111 113.686 111 117V147C111 150.314 108.314 153 105 153H75C71.6863 153 69 155.686 69 159V170" stroke="black" stroke-width="12" stroke-linecap="round"/>
<path d="M54.6854 68.8494C67.1355 64.1008 73.3941 50.1185 68.6643 37.619C63.9345 25.1195 50.0074 18.8362 37.5573 23.5847C25.1072 28.3333 18.8487 42.3156 23.5785 54.8151C28.3082 67.3145 42.2353 73.5979 54.6854 68.8494ZM54.6854 68.8494L68.9588 106.57M54.6854 68.8494L76.5381 65.3444C79.5918 64.8546 83.6366 63.4698 84.5 60.5L91 43.5M54.6854 68.8494L40.8306 84.8189C39.402 86.4655 38.7072 88.6237 38.907 90.7944L40.3209 106.162M68.9588 106.57L65.4648 125.322C64.8793 128.464 62.4799 130.956 59.3622 131.66L49 134M68.9588 106.57L86.1379 88.6756C88.1455 86.5844 91.1274 85.7429 93.9321 86.4761L105.5 89.5" stroke="black" stroke-width="12" stroke-linecap="round" stroke-linejoin="round"/>
</svg>

<svg xmlns="http://www.w3.org/2000/svg" width="192" height="192" fill="none" viewBox="0 0 192 192"><path stroke="#000" stroke-linecap="round" stroke-width="12" d="M170 69h-11a6 6 0 0 0-6 6v30a6 6 0 0 1-6 6h-30a6 6 0 0 0-6 6v30a6 6 0 0 1-6 6H75a6 6 0 0 0-6 6v11"/><path stroke="#000" stroke-linecap="round" stroke-linejoin="round" stroke-width="12" d="M54.685 68.85c12.45-4.75 18.71-18.731 13.98-31.231S50.006 18.836 37.556 23.585c-12.45 4.748-18.708 18.73-13.979 31.23 4.73 12.5 18.657 18.783 31.107 14.034m0 0 14.274 37.72M54.685 68.85l21.853-3.506c3.054-.49 7.099-1.874 7.962-4.844l6.5-17M54.685 68.85 40.831 84.818a8 8 0 0 0-1.924 5.975l1.414 15.368m28.638.408-3.494 18.752a8 8 0 0 1-6.103 6.338L49 134m19.959-27.43 17.179-17.894a8 8 0 0 1 7.794-2.2L105.5 89.5"/></svg>
